packages/ffe-icons/icons/open/400/sm/format_indent_decrease.svg

<svg xmlns="http://www.w3.org/2000/svg" height="20" viewBox="0 -960 960 960" width="20"><path d="M180-144q-15.3 0-25.65-10.289-10.35-10.29-10.35-25.5Q144-195 154.35-205.5 164.7-216 180-216h600q15.3 0 25.65 10.289 10.35 10.29 10.35 25.5Q816-165 805.65-154.5 795.3-144 780-144H180Zm288-150q-15.3 0-25.65-10.289-10.35-10.29-10.35-25.5Q432-345 442.35-355.5 452.7-366 468-366h312q15.3 0 25.65 10.289 10.35 10.29 10.35 25.5Q816-315 805.65-304.5 795.3-294 780-294H468Zm0-150q-15.3 0-25.65-10.289-10.35-10.29-10.35-25.5Q432-495 442.35-505.5 452.7-516 468-516h312q15.3 0 25.65 10.289 10.35 10.29 10.35 25.5Q816-465 805.65-454.5 795.3-444 780-444H468Zm0-150q-15.3 0-25.65-10.289-10.35-10.29-10.35-25.5Q432-645 442.35-655.5 452.7-666 468-666h312q15.3 0 25.65 10.289 10.35 10.29 10.35 25.5Q816-615 805.65-604.5 795.3-594 780-594H468ZM180-744q-15.3 0-25.65-10.289-10.35-10.29-10.35-25.5Q144-795 154.35-805.5 164.7-816 180-816h600q15.3 0 25.65 10.289 10.35 10.29 10.35 25.5Q816-765 805.65-754.5 795.3-744 780-744H180Zm77 377-99.661-99.661Q152-472 152-480t5.339-13.339L257-593q8-8 19.5-3.833Q288-592.667 288-581v202q0 11.667-11.5 15.833Q265-359 257-367Z"/></svg>

<svg xmlns="http://www.w3.org/2000/svg" height="20" viewBox="0 -960 960 960" width="20"><path d="M180-144q-15.3 0-25.65-10.29Q144-164.58 144-179.79t10.35-25.71Q164.7-216 180-216h600q15.3 0 25.65 10.29Q816-195.42 816-180.21t-10.35 25.71Q795.3-144 780-144H180Zm288-150q-15.3 0-25.65-10.29Q432-314.58 432-329.79t10.35-25.71Q452.7-366 468-366h312q15.3 0 25.65 10.29Q816-345.42 816-330.21t-10.35 25.71Q795.3-294 780-294H468Zm0-150q-15.3 0-25.65-10.29Q432-464.58 432-479.79t10.35-25.71Q452.7-516 468-516h312q15.3 0 25.65 10.29Q816-495.42 816-480.21t-10.35 25.71Q795.3-444 780-444H468Zm0-150q-15.3 0-25.65-10.29Q432-614.58 432-629.79t10.35-25.71Q452.7-666 468-666h312q15.3 0 25.65 10.29Q816-645.42 816-630.21t-10.35 25.71Q795.3-594 780-594H468ZM180-744q-15.3 0-25.65-10.29Q144-764.58 144-779.79t10.35-25.71Q164.7-816 180-816h600q15.3 0 25.65 10.29Q816-795.42 816-780.21t-10.35 25.71Q795.3-744 780-744H180Zm77 377-99.66-99.66Q152-472 152-480t5.34-13.34L257-593q8-8 19.5-3.83Q288-592.67 288-581v202q0 11.67-11.5 15.83Q265-359 257-367Z"/></svg>
